X:1
T:James Gibb editions
T:Vide Domine - Palestrina
T:#
%%score { 1 | 2 } 3
L:1/8
Q:1/4=69
M:4/4
K:C
V:1 treble nm="Soprano I" snm="S"
V:2 treble 
V:3 treble nm="Alto" snm="A"
V:1
"^Vide Domine""^andante""^G. P. da Palestrina\n(1526-94)"!pp! e8 |"^," d4 f4- | f2 e2 e4- | %3
w: Vi-|de Do\-|* mi- ne,|
 e4 z2 e2- | e2 d2 c4- |[M:4/4] c2 B2 (A4 |"^," B4)!f! c4- | c2 c2 c4 | (B6 AG | A2) B2"^," c4 | %10
w: * et|* con- si\-|* de- ra|* quo\-|* ni- am|fa\- * *|* cta sum|
 (A3 B c4- | c2 BA B4) |"^," A4!ff! e4- | e2 e2"^," e4 |!p!!<(! d6"^rall."[Q:1/4=68] e2!<)! | %15
w: vi\- * *||lis, quo\-|* ni- am|fa- cta|
"^,"[Q:1/4=66] f4[Q:1/4=64]!>(! !>!e4-!>)! |[Q:1/4=62] e4[Q:1/4=60] !fermata!d4 |] %17
w: sum vi\-|* lis.|
V:2
!pp! c8 |"^," B4 d4- |!>(! d2 B2!>)! c2 A2- | A2 G2 c2 c2 |"^," B4 e4 |[M:4/4]!<(! f2 e4!<)! d2 | %6
w: Vi-|de Do\-|* mi- ne, et|* con- si- de-|ra, et|con- si- de-|
!>(! e8!>)! | z2!f! e4 e2 | e4 d4 | d4"^," e4 |!>(! c3 B A4!>)! | (^G2 A4 G2) | %12
w: ra|quo- ni-|am fa-|cta sum|vi\- * *||
"^," A2!ff! !>!c4 c2 |"^," c4!p! (B4- | B2 AG A2) G2 | (A2 B2)!>(! !>!c4-!>)! | c4 !fermata!B4 |] %17
w: lis, quo- ni-|am fa\-|* * * * cta|sum * vi\-|* lis.|
V:3
!pp! C8 |"^," G4 (D3 E | F2) G2"^," A2 c2- | c2 B2 A2 A2 |"^," G4 A4- |[M:4/4] A2 G2 F2 F2 | %6
w: Vi-|de Do\- *|* mi- ne, et|* con- si- de-|ra, et|* con- si- de-|
"^," E4!f! A4- | A2 A2 A4 | (G6 ^FE | ^F2) G2"^," C4 |!>(! =F8!>)! | E8 | z2!ff! !>!A4 A2 | %13
w: ra quo\-|* ni- am|fa\- * *|* cta sum|vi-|lis,|quo- ni-|
"^," A4!p! (G4- | G2 FE F2) E2 |"^," D4!>(! !>!C4-!>)! | C4 !fermata!G4 |] %17
w: am fa\-|* * * * cta|sum vi\-|* lis.|

